icons/folder-open-24-f.svg

<?xml version="1.0" encoding="UTF-8"?><svg id="icons" xmlns="http://www.w3.org/2000/svg" viewBox="0 0 24 24"><defs><style>.cls-1{fill:none;}.cls-1,.cls-2{stroke-width:0px;}</style></defs><rect class="cls-1" width="24" height="24"/><path class="cls-2" d="M21,9v-4h-8.79999l-1.20001-2h-7l-1.20001,2h-1.79999v16h20l2.90234-12h-2.90234ZM2,6h1.36621l1.2002-2h5.86719l1.2002,2h8.36621v3h-5.59998l-2,2H4.3501l-2.3501,7.01501V6Z"/></svg>

<svg xmlns="http://www.w3.org/2000/svg" viewBox="0 0 24 24"><path stroke-width="0" fill="none" d="M0 0h24v24H0z"/><path d="M21 9V5h-8.8L11 3H4L2.8 5H1v16h20l2.902-12H21zM2 6h1.366l1.2-2h5.868l1.2 2H20v3h-5.6l-2 2H4.35L2 18.015V6z" stroke-width="0"/></svg>
